images/icon/smile.svg

<svg height="140" viewBox="0 0 140 140" width="140" xmlns="http://www.w3.org/2000/svg"><path d="m12 0a12 12 0 1 0 12 12 12.013 12.013 0 0 0 -12-12zm-4 7a2 2 0 1 1 -2 2 2 2 0 0 1 2-2zm-1.156 7.162a1 1 0 0 1 1.384.291 4.5 4.5 0 0 0 7.544 0 1 1 0 0 1 1.676 1.094 6.5 6.5 0 0 1 -10.9 0 1 1 0 0 1 .296-1.385zm9.156-3.162a2 2 0 1 1 2-2 2 2 0 0 1 -2 2z" transform="scale(5.83333333)"/></svg>

<svg viewBox="0 0 140 140" height="140" width="140" xmlns="http://www.w3.org/2000/svg"><g transform="matrix(5.833333333333333,0,0,5.833333333333333,0,0)"><path d="M12,0A12,12,0,1,0,24,12,12.013,12.013,0,0,0,12,0ZM8,7A2,2,0,1,1,6,9,2,2,0,0,1,8,7ZM6.844,14.162a1,1,0,0,1,1.384.291,4.5,4.5,0,0,0,7.544,0,1,1,0,0,1,1.676,1.094,6.5,6.5,0,0,1-10.9,0A1,1,0,0,1,6.844,14.162ZM16,11a2,2,0,1,1,2-2A2,2,0,0,1,16,11Z" fill="#000" stroke="none" stroke-linecap="round" stroke-linejoin="round" stroke-width="0"></path></g></svg>
